src/lib/packages/icons/src/assets/filled/arrow-up-circle.svg

<svg width="24" height="24" viewBox="0 0 24 24" fill="none" xmlns="http://www.w3.org/2000/svg">
<path d="M12 2C6.477 2 2 6.477 2 12C2 17.523 6.477 22 12 22C17.523 22 22 17.523 22 12C22 6.477 17.523 2 12 2ZM15.53 11.53C15.384 11.676 15.192 11.75 15 11.75C14.808 11.75 14.616 11.677 14.47 11.53L12.75 9.81006V16C12.75 16.414 12.414 16.75 12 16.75C11.586 16.75 11.25 16.414 11.25 16V9.81104L9.53003 11.531C9.23703 11.824 8.76199 11.824 8.46899 11.531C8.17599 11.238 8.17599 10.763 8.46899 10.47L11.469 7.46997C11.538 7.40097 11.6209 7.34611 11.7129 7.30811C11.8959 7.23211 12.1029 7.23211 12.2859 7.30811C12.3779 7.34611 12.461 7.40097 12.53 7.46997L15.53 10.47C15.823 10.763 15.823 11.237 15.53 11.53Z" fill="currentColor"/>
</svg>

<svg xmlns="http://www.w3.org/2000/svg" width="24" height="24" fill="none"><path fill="currentColor" d="M12 2C6.477 2 2 6.477 2 12s4.477 10 10 10 10-4.477 10-10S17.523 2 12 2Zm3.53 9.53a.748.748 0 0 1-1.06 0l-1.72-1.72V16a.75.75 0 0 1-1.5 0V9.811l-1.72 1.72a.75.75 0 0 1-1.061-1.061l3-3a.748.748 0 0 1 .817-.162.749.749 0 0 1 .244.162l3 3a.749.749 0 0 1 0 1.06Z"/></svg>
